packages/bezier-icons/icons/edit.svg

<svg width="24" height="24" viewBox="0 0 24 24" fill="none" xmlns="http://www.w3.org/2000/svg">
<path fill-rule="evenodd" clip-rule="evenodd" d="M11.4188 16C11.9493 16 12.458 15.7893 12.8331 15.4142L20.6204 7.62691C21.7932 6.45406 21.7932 4.55249 20.6204 3.37964C19.4475 2.20679 17.5459 2.20679 16.3731 3.37964L8.58579 11.1669C8.21071 11.542 8 12.0507 8 12.5812L8 15C8 15.5523 8.44772 16 9 16H11.4188ZM10.0022 13.9978H11.4179L19.2046 6.21115C19.5956 5.8202 19.5956 5.18635 19.2046 4.7954C18.8137 4.40445 18.1798 4.40445 17.7888 4.7954L10.0022 12.5821V13.9978ZM11 4L9.35719 4C8.27341 3.99999 7.39926 3.99998 6.69138 4.05782C5.96253 4.11737 5.32234 4.24318 4.73005 4.54497C3.78924 5.02433 3.02434 5.78924 2.54497 6.73005C2.24318 7.32234 2.11737 7.96253 2.05782 8.69138C1.99998 9.39926 1.99999 10.2734 2 11.3572V14.6428C1.99999 15.7266 1.99998 16.6007 2.05782 17.3086C2.11737 18.0375 2.24318 18.6777 2.54497 19.27C3.02434 20.2108 3.78924 20.9757 4.73005 21.455C5.32234 21.7568 5.96253 21.8826 6.69138 21.9422C7.39923 22 8.27334 22 9.35707 22H9.35717H12.6428H12.6429C13.7267 22 14.6008 22 15.3086 21.9422C16.0375 21.8826 16.6777 21.7568 17.27 21.455C18.2108 20.9757 18.9757 20.2108 19.455 19.27C19.7568 18.6777 19.8826 18.0375 19.9422 17.3086C20 16.6008 20 15.7267 20 14.6429V14.6428V13H18V14.6C18 15.7366 17.9992 16.5289 17.9488 17.1458C17.8994 17.7509 17.8072 18.0986 17.673 18.362C17.3854 18.9265 16.9265 19.3854 16.362 19.673C16.0986 19.8072 15.7509 19.8994 15.1458 19.9488C14.5289 19.9992 13.7366 20 12.6 20H9.4C8.2634 20 7.47108 19.9992 6.85424 19.9488C6.24907 19.8994 5.90138 19.8072 5.63803 19.673C5.07354 19.3854 4.6146 18.9265 4.32698 18.362C4.1928 18.0986 4.10062 17.7509 4.05118 17.1458C4.00078 16.5289 4 15.7366 4 14.6V11.4C4 10.2634 4.00078 9.47108 4.05118 8.85424C4.10062 8.24907 4.1928 7.90138 4.32698 7.63803C4.6146 7.07354 5.07354 6.6146 5.63803 6.32698C5.90138 6.19279 6.24907 6.10062 6.85424 6.05118C7.47108 6.00078 8.2634 6 9.4 6H11V4Z" fill="#313234"/>
</svg>

<svg xmlns="http://www.w3.org/2000/svg" width="24" height="24" fill="none" viewBox="0 0 24 24"><path fill="#313234" fill-rule="evenodd" d="M11.419 16a2 2 0 0 0 1.414-.586l7.787-7.787a3.003 3.003 0 0 0-4.247-4.247l-7.787 7.787A2 2 0 0 0 8 12.58V15a1 1 0 0 0 1 1zm-1.417-2.002h1.416l7.787-7.787a1.001 1.001 0 1 0-1.416-1.416l-7.787 7.787zM11 4H9.357C8.273 4 7.4 4 6.691 4.058c-.728.06-1.369.185-1.96.487A5 5 0 0 0 2.544 6.73c-.302.592-.428 1.233-.487 1.961C2 9.4 2 10.273 2 11.357v3.286c0 1.084 0 1.958.058 2.666.06.729.185 1.369.487 1.961a5 5 0 0 0 2.185 2.185c.592.302 1.233.428 1.961.487C7.4 22 8.273 22 9.357 22h3.286c1.084 0 1.958 0 2.666-.058.729-.06 1.369-.185 1.961-.487a5 5 0 0 0 2.185-2.185c.302-.592.428-1.232.487-1.961C20 16.6 20 15.727 20 14.643V13h-2v1.6c0 1.137 0 1.929-.051 2.546-.05.605-.142.953-.276 1.216a3 3 0 0 1-1.311 1.311c-.263.134-.611.226-1.216.276-.617.05-1.41.051-2.546.051H9.4c-1.137 0-1.929 0-2.546-.051-.605-.05-.953-.142-1.216-.276a3 3 0 0 1-1.311-1.311c-.134-.263-.226-.611-.276-1.216C4.001 16.529 4 15.736 4 14.6v-3.2c0-1.137 0-1.929.051-2.546.05-.605.142-.953.276-1.216a3 3 0 0 1 1.311-1.311c.263-.134.611-.226 1.216-.276C7.471 6.001 8.264 6 9.4 6H11z" clip-rule="evenodd"/></svg>
